dist/svgs/unicons/line/signal-alt.svg

<svg xmlns="http://www.w3.org/2000/svg" viewBox="0 0 24 24"><path d="M10 14a1 1 0 00-1 1v6a1 1 0 002 0v-6a1 1 0 00-1-1zm-5 4a1 1 0 00-1 1v2a1 1 0 002 0v-2a1 1 0 00-1-1zM20 2a1 1 0 00-1 1v18a1 1 0 002 0V3a1 1 0 00-1-1zm-5 7a1 1 0 00-1 1v11a1 1 0 002 0V10a1 1 0 00-1-1z"/></svg>

<svg xmlns="http://www.w3.org/2000/svg" viewBox="0 0 24 24"><path d="M10,14a1,1,0,0,0-1,1v6a1,1,0,0,0,2,0V15A1,1,0,0,0,10,14ZM5,18a1,1,0,0,0-1,1v2a1,1,0,0,0,2,0V19A1,1,0,0,0,5,18ZM20,2a1,1,0,0,0-1,1V21a1,1,0,0,0,2,0V3A1,1,0,0,0,20,2ZM15,9a1,1,0,0,0-1,1V21a1,1,0,0,0,2,0V10A1,1,0,0,0,15,9Z"/></svg>
